X:87
T:Biddy Oats
S:Bruce & Emmett
S:American Veteran Fifer #87
N:a slightly different version appears in Bruce & Emmett
C:By J.L. Blatchley, Co.E.2nd N.Y.H.A.
M:2/4
L:1/8
Q:1/8=200
K:D 
%%MIDI program 72
%%MIDI transpose 8
%%MIDI ratio 3 1
((3A/B/c/) | df/d/ Ad/A/ | FA/F/ DA | d/c/B/A/ g/f/e/d/ | e/f/c/e/ d/c/B/A/ |
df/d/ Ad/A/ | FA/F/ De/f/ | g/e/f/d/ e/c/d/B/ | Acd :|
|: f/e/ | dF/G/ Ag/f/ | eE/F/ Gf/e/ | d/A/F/A/ g/f/e/d/ | c/e/d/B/ Af/e/ |
d/A/B/c/ d/G/g/f/ | e/d/c/d/ e/A/a/g/ | f/e/d/c/ d/g/e/c/ | dfd :|



